packages/netlify-cms-ui-default/src/Icon/images/list.svg

<svg height="24" viewBox="0 0 24 24" width="24" xmlns="http://www.w3.org/2000/svg"><path d="m4.5 3h15c.8284271 0 1.5.67157288 1.5 1.5 0 .82842712-.6715729 1.5-1.5 1.5h-15c-.82842712 0-1.5-.67157288-1.5-1.5 0-.82842712.67157288-1.5 1.5-1.5zm0 5h15c.8284271 0 1.5.67157288 1.5 1.5 0 .8284271-.6715729 1.5-1.5 1.5h-15c-.82842712 0-1.5-.6715729-1.5-1.5 0-.82842712.67157288-1.5 1.5-1.5zm0 5h15c.8284271 0 1.5.6715729 1.5 1.5s-.6715729 1.5-1.5 1.5h-15c-.82842712 0-1.5-.6715729-1.5-1.5s.67157288-1.5 1.5-1.5zm0 5h15c.8284271 0 1.5.6715729 1.5 1.5s-.6715729 1.5-1.5 1.5h-15c-.82842712 0-1.5-.6715729-1.5-1.5s.67157288-1.5 1.5-1.5z"/></svg>

<svg xmlns="http://www.w3.org/2000/svg" xmlns:xlink="http://www.w3.org/1999/xlink" width="24" height="24" viewBox="0 0 24 24"><path id="icon-list@2x-a" d="M4.5,3 L19.5,3 C20.3284271,3 21,3.67157288 21,4.5 L21,4.5 C21,5.32842712 20.3284271,6 19.5,6 L4.5,6 C3.67157288,6 3,5.32842712 3,4.5 L3,4.5 L3,4.5 C3,3.67157288 3.67157288,3 4.5,3 L4.5,3 Z M4.5,8 L19.5,8 C20.3284271,8 21,8.67157288 21,9.5 C21,10.3284271 20.3284271,11 19.5,11 L4.5,11 C3.67157288,11 3,10.3284271 3,9.5 C3,8.67157288 3.67157288,8 4.5,8 L4.5,8 Z M4.5,13 L19.5,13 C20.3284271,13 21,13.6715729 21,14.5 C21,15.3284271 20.3284271,16 19.5,16 L4.5,16 C3.67157288,16 3,15.3284271 3,14.5 C3,13.6715729 3.67157288,13 4.5,13 L4.5,13 Z M4.5,18 L19.5,18 C20.3284271,18 21,18.6715729 21,19.5 C21,20.3284271 20.3284271,21 19.5,21 L4.5,21 C3.67157288,21 3,20.3284271 3,19.5 C3,18.6715729 3.67157288,18 4.5,18 L4.5,18 Z"/></svg>
